azure-docs/api_luis.svg

<?xml version="1.0" encoding="UTF-8"?>
<svg width="512px" height="512px" viewBox="0 0 512 512" version="1.1" xmlns="http://www.w3.org/2000/svg" xmlns:xlink="http://www.w3.org/1999/xlink">
    <!-- Generator: Sketch 46.2 (44496) - http://www.bohemiancoding.com/sketch -->
    <title>luis-wht-bluBG-512p</title>
    <desc>Created with Sketch.</desc>
    <defs></defs>
    <g id="PRODUCTION-ICONS" stroke="none" stroke-width="1" fill="none" fill-rule="evenodd">
        <g id="luis-wht-bluBG-512p">
            <g id="LUIS">
                <rect id="Rectangle-3-Copy-13" fill="#0063B1" x="0" y="0" width="512" height="512"></rect>
                <path d="M395.4944,248.94464 L399.817956,249.530596 L399.817956,267.12064 L395.522844,267.729351 C383.2576,269.453084 377.142044,279.192462 377.142044,298.921529 L377.142044,340.200107 C377.142044,355.49184 373.632,366.892373 366.299022,374.185529 C359.062756,381.364907 348.600889,385.125262 335.135289,385.631573 L329.952711,385.830684 L329.952711,364.24704 L334.674489,363.99104 C341.819733,363.598507 346.427733,361.578951 348.925156,358.120107 C351.661511,354.342684 353.208889,346.981262 353.208889,336.172373 L353.208889,297.812196 C353.208889,279.283484 358.158222,266.016996 368.193422,258.439396 C358.198044,251.459129 353.208889,238.835484 353.208889,221.228373 L353.208889,180.501618 C353.208889,169.68704 351.661511,162.325618 348.925156,158.548196 C346.427733,155.09504 341.819733,153.069796 334.674489,152.682951 L329.952711,152.426951 L329.952711,130.843307 L335.135289,131.036729 C348.600889,131.54304 359.062756,135.309084 366.299022,142.494151 C373.632,149.781618 377.142044,161.176462 377.142044,176.473884 L377.142044,220.11904 C377.142044,238.317796 383.160889,247.283484 395.4944,248.94464 Z M141.611236,142.49472 C148.841813,135.309653 159.309369,131.543609 172.774969,131.037298 L177.951858,130.843876 L177.951858,152.42752 L173.235769,152.68352 C166.084836,153.070364 161.482524,155.095609 158.979413,158.548764 C156.243058,162.326187 154.69568,169.687609 154.69568,180.502187 L154.69568,221.228942 C154.69568,238.938453 149.649636,251.618987 139.529102,258.56512 C149.672391,265.841209 154.69568,279.14752 154.69568,297.812764 L154.69568,336.172942 C154.69568,346.981831 156.243058,354.343253 158.979413,358.120676 C161.482524,361.57952 166.084836,363.599076 173.235769,363.991609 L177.951858,364.24192 L177.951858,385.825564 L172.774969,385.632142 C159.309369,385.125831 148.841813,381.365476 141.611236,374.186098 C134.272569,366.892942 130.762524,355.492409 130.762524,340.200676 L130.762524,298.922098 C130.762524,279.193031 124.652658,269.453653 112.381724,267.72992 L108.086613,267.121209 L108.086613,249.525476 L112.410169,248.945209 C124.74368,247.284053 130.762524,238.318364 130.762524,220.119609 L130.762524,176.474453 C130.762524,161.177031 134.272569,149.782187 141.611236,142.49472 Z" id="Combined-Shape" fill="#FFFFFF"></path>
            </g>
        </g>
    </g>
</svg>

<svg width="512" height="512" xmlns="http://www.w3.org/2000/svg"><g fill="none" fill-rule="evenodd"><path fill="#0063B1" d="M0 0h512v512H0z"/><path d="M395.494 248.945l4.324.586v17.59l-4.295.608c-12.265 1.724-18.381 11.463-18.381 31.193V340.2c0 15.292-3.51 26.692-10.843 33.986-7.236 7.179-17.698 10.94-31.164 11.446l-5.182.199v-21.584l4.721-.256c7.146-.392 11.754-2.412 14.251-5.87 2.737-3.778 4.284-11.14 4.284-21.949v-38.36c0-18.529 4.95-31.795 14.984-39.373-9.995-6.98-14.984-19.604-14.984-37.21v-40.727c0-10.815-1.547-18.176-4.284-21.954-2.497-3.453-7.105-5.478-14.25-5.865l-4.722-.256v-21.584l5.182.194c13.466.506 23.928 4.272 31.164 11.457 7.333 7.288 10.843 18.682 10.843 33.98v43.645c0 18.199 6.019 27.164 18.352 28.826zm-253.883-106.45c7.23-7.185 17.698-10.951 31.164-11.458l5.177-.193v21.584l-4.716.256c-7.151.386-11.753 2.412-14.257 5.865-2.736 3.777-4.283 11.139-4.283 21.953v40.727c0 17.71-5.046 30.39-15.167 37.336 10.143 7.276 15.167 20.583 15.167 39.248v38.36c0 10.809 1.547 18.17 4.283 21.948 2.504 3.459 7.106 5.478 14.257 5.87l4.716.25v21.585l-5.177-.194c-13.466-.506-23.933-4.267-31.164-11.446-7.338-7.293-10.848-18.694-10.848-33.985v-41.279c0-19.729-6.11-29.468-18.381-31.192l-4.295-.609v-17.596l4.323-.58c12.334-1.66 18.353-10.627 18.353-28.825v-43.646c0-15.297 3.51-26.692 10.848-33.98z" fill="#FFF"/></g></svg>
